Manual/img/Not Double-Oh/SegE.svg

<?xml version="1.0" encoding="UTF-8" standalone="no"?>
<svg
   xmlns:dc="http://purl.org/dc/elements/1.1/"
   xmlns:cc="http://creativecommons.org/ns#"
   xmlns:rdf="http://www.w3.org/1999/02/22-rdf-syntax-ns#"
   xmlns:svg="http://www.w3.org/2000/svg"
   xmlns="http://www.w3.org/2000/svg"
   xmlns:sodipodi="http://sodipodi.sourceforge.net/DTD/sodipodi-0.dtd"
   xmlns:inkscape="http://www.inkscape.org/namespaces/inkscape"
   width="450"
   height="800"
   viewBox="0 0 119.0625 211.66666"
   version="1.1"
   id="svg8"
   inkscape:version="1.0.2-2 (e86c870879, 2021-01-15)"
   sodipodi:docname="SegE.svg">
  <defs
     id="defs2" />
  <sodipodi:namedview
     id="base"
     pagecolor="#ffffff"
     bordercolor="#666666"
     borderopacity="1.0"
     inkscape:pageopacity="0.0"
     inkscape:pageshadow="2"
     inkscape:zoom="0.49497475"
     inkscape:cx="268.33623"
     inkscape:cy="307.46054"
     inkscape:document-units="mm"
     inkscape:current-layer="layer1"
     inkscape:document-rotation="0"
     showgrid="true"
     units="px">
    <inkscape:grid
       type="xygrid"
       id="grid833"
       spacingx="1.3229166"
       spacingy="1.3229166" />
  </sodipodi:namedview>
  <metadata
     id="metadata5">
    <rdf:RDF>
      <cc:Work
         rdf:about="">
        <dc:format>image/svg+xml</dc:format>
        <dc:type
           rdf:resource="http://purl.org/dc/dcmitype/StillImage" />
        <dc:title></dc:title>
      </cc:Work>
    </rdf:RDF>
  </metadata>
  <g
     inkscape:label="Layer 1"
     inkscape:groupmode="layer"
     id="layer1">
    <path
       style="fill:#000000;fill-opacity:1;fill-rule:evenodd;stroke-width:0.79375;stroke-linecap:round;stroke-linejoin:round;stop-color:#000000"
       d="M 0,33.072915 13.229166,19.843749 26.458332,33.072915 V 85.989577 L 13.229166,99.218743 0,85.989577 Z"
       id="path863" />
    <path
       style="fill:#000000;fill-opacity:1;fill-rule:evenodd;stroke-width:0.79375;stroke-linecap:round;stroke-linejoin:round;stop-color:#000000"
       d="M 19.843749,13.229166 33.072914,26.458332 H 85.989577 L 99.218743,13.229166 85.989577,0 H 33.072914 Z"
       id="path865" />
    <path
       style="fill:#dcdcdc;fill-opacity:1;fill-rule:evenodd;stroke-width:0.79375;stroke-linecap:round;stroke-linejoin:round;stop-color:#000000"
       d="m 92.60416,33.072915 13.22917,-13.229166 13.22916,13.229166 V 85.989577 L 105.83333,99.218743 92.60416,85.989577 Z"
       id="path867" />
    <path
       style="fill:#000000;fill-opacity:1;fill-rule:evenodd;stroke-width:0.79375;stroke-linecap:round;stroke-linejoin:round;stop-color:#000000"
       d="m 33.072914,92.60416 -13.229165,13.22917 13.229165,13.22916 H 85.989577 L 99.218743,105.83333 85.989577,92.60416 Z"
       id="path869" />
    <path
       style="fill:#000000;fill-opacity:1;fill-rule:evenodd;stroke-width:0.79375;stroke-linecap:round;stroke-linejoin:round;stop-color:#000000"
       d="M 6.0000002e-6,125.67708 13.229172,112.44791 26.458338,125.67708 v 52.91666 L 13.229172,191.8229 6.0000002e-6,178.59374 Z"
       id="path863-2" />
    <path
       style="fill:#dcdcdc;fill-opacity:1;fill-rule:evenodd;stroke-width:0.79375;stroke-linecap:round;stroke-linejoin:round;stop-color:#000000"
       d="m 92.604162,125.67708 13.229168,-13.22917 13.22916,13.22917 v 52.91666 L 105.83333,191.8229 92.604162,178.59374 Z"
       id="path867-8" />
    <path
       style="fill:#000000;fill-opacity:1;fill-rule:evenodd;stroke-width:0.79375;stroke-linecap:round;stroke-linejoin:round;stop-color:#000000"
       d="m 33.07292,185.20832 -13.229165,13.22916 13.229165,13.22917 h 52.916662 l 13.22917,-13.22917 -13.22917,-13.22916 z"
       id="path869-5" />
  </g>
</svg>

<svg xmlns="http://www.w3.org/2000/svg" width="450" height="800" viewBox="0 0 119.063 211.667"><g fill-rule="evenodd"><path d="m0 33.073 13.23-13.23 13.228 13.23V85.99L13.23 99.219 0 85.989Z"/><path d="m19.844 13.23 13.229 13.228H85.99L99.219 13.23 85.989 0H33.074Z"/><path d="m92.604 33.073 13.23-13.23 13.228 13.23V85.99l-13.229 13.229-13.229-13.23Z" fill="#dcdcdc"/><path d="m33.073 92.604-13.23 13.23 13.23 13.228H85.99l13.229-13.229-13.23-13.229Z"/><path d="m0 125.677 13.23-13.23 13.228 13.23v52.917L13.23 191.823 0 178.593Z"/><path d="m92.604 125.677 13.23-13.23 13.228 13.23v52.917l-13.229 13.229-13.229-13.23Z" fill="#dcdcdc"/><path d="m33.073 185.208-13.23 13.23 13.23 13.229H85.99l13.229-13.23-13.23-13.229z"/></g></svg>
